X:1
T:J.J.Froberger - Lamento Ferdinand III. {Professional production score.}
%%score { ( 1 2 3 8 ) | ( 4 5 6 7 ) }
L:1/8
Q:1/4=25
M:2/2
K:Bb
V:1 treble nm="Harpsichord" snm="Hch."
V:2 treble 
V:3 treble 
V:8 treble 
V:4 bass 
V:5 bass 
V:6 bass 
V:7 bass 
V:1
"^Lamentation\n     faite  sur  la  mort  tres  douloureuse  de  Sa  Majeste  Imperiale,Ferdinand  le  troiseme;  et  se  joue  len-\ntement  avec  discretion. An. 1657." z2 z c- c=A _E2 | %1
 [CF]4 z2 z f | !arpeggio![df]_d A2 B2 BB | =E>E Fc F2- FG | %4
 [CE]3 !arpeggio![CE] !arpeggio![CE]4[Q:1/4=30][Q:1/4=35][Q:1/4=40] | EE/D/ _A>G F/E/D/C/ D2- | %6
 [CD]3 x D4 | C2 E2- E>F E2 | D2 D/E/F FF/E/ B>A | %9
 G/F/E/D/ ^C/=B,/C/[I:staff +1]A,/[I:staff -1] =E>E F2 | G2 ED- D/C/_D C2 | %11
 z/ C/D/E/ F2 z/ F/G/_A/ B>=B | c2- c_A G2[Q:1/4=20] =E2 |][Q:1/4=30] z2 z/ D/E/F/ G4- | %14
 [EG]6 C>D | EF G/G/A/B/ z/4 d/4c/4B/4B/c/- c/d/e/d/ | c/>=B/c/G/ _A/=E/4F/4C/F/ F3 ^F- | %17
 F/G/A/B/ cA ^F2- Fc/C/ | ^FF/4G/4A/ G>F G4 | z G CC C2 [F_A]2- | _A<A G2- GG =AA/4B/4c/- | %21
 c/c/B/A/ BB- B_A/G/ F>F | G/E/F/G/ _A2- A/G/A/B/ A>G | [CE_A]8 |] _A4- A/B/c/_d/ e2- | %25
 e/e/f/e/ _d>c d/>c/B/A/ B2- | B/B/c/B/ _A>G A3 B | _A/>G/F/E/ D/E/C/F/4A,/4 =B,>B, C/>C/D/E/ | %28
 F4 F4- | F2 F2 =E4 | x6 =E/F/G/4A/4=B/4c/4- | c2 c/d/4c/<PB/A/4 B4- | B2- B/c/B/A/ G/F/E/D/ CB | %33
 B/A/G z/ FE/ z/ _DC/ z/ B,3/2- | B, B,3 B,/C/B,/_A,/ x2 | x2 _D2[Q:1/4=22] =D2 x2 | %36
 x4[Q:1/4=22][Q:1/4=21][Q:1/4=20] c[Q:1/4=10]f/f/ f2[Q:1/4=24][Q:1/4=23] |] %37
V:2
 z2 z/ _A3/2- A x3 | x6 z/ d3/2 | x2 z E F4 | =EC C>C- C/C/PB,/[I:staff +1]A,/[I:staff -1] B,>=B, | %4
 x8 | CC F2 x3 C- | x7/2 C x7/2 | C>[I:staff +1]G,- G,2 x4 |[I:staff -1] DB, D2- DD- D2 | %9
 x4 ^C>C D2- | D2 CB, B,/[I:staff +1]A,/-A,/4A,/4B,/ x2 | x9/2[I:staff -1] F3/2 FF- | %12
 F>=E F2 FE/D/ C<C |] x4 G/D/E E2- | x8 | C2 D2 x4 | x3 C C2- C2 | x2 z/ G/A/=E/ z/ C3/2- C<C | %18
 C4 z D [=B,D]2 | x6 C2 | FF/D/- D2 x4 | D2 D>D EE E_D | D2- D/C/4B,/4_A,/4D/4C/ [B,D]4 | x8 |] %24
 E8 | F4- F2- F/F/G/F/ | E4 [DF]4 | x4 =B,[I:staff +1]_A, x2 | %28
[I:staff -1] CB,/[I:staff +1]A,/ x2[I:staff -1] B,<=B, B,2 | z2 z/ ^C/D DC/=B,/ C2 | x8 | AA- x6 | %32
 x6 CG | C>E DC x4 | x8 | x8 | x2 z z/ A/ x4 |] %37
V:3
 x2 z z/ =E/ F>D x2 | x6 z z/ _A/ | B>G C2 _D2 D>=D | x8 | x8 | %5
 x2 C2 x2 z/ =B,/C/[I:staff +1]A,/- | x4[I:staff -1] C3 =B, | x2 C2- C2 C>C | x8 | x8 | x8 | x8 | %12
 x6 z G |] x8 | x8 | x8 | x8 | x8 | x8 | x8 | x F F2- FE D2 | x8 | x8 | x8 |] C2 B,2 x4 | x8 | x8 | %27
 x8 | x8 | x8 | x8 | z/ D/D- [DA]2 [DG]4 | x8 | x8 | x8 | x8 | x2 z F x4 |] %37
V:4
 z2 F,2- F,2 z B, | _A,4 z2 B,2 | B,,4 B,, B,,3 | x4 F,4 | [C,G,]2 x6 | z2 z F, F,4 | %6
 A,A,/=B,/ A,B,/[I:staff -1]C/[I:staff +1] z G,3 | C,2- C,/D,/MC,/B,,/ z/ F,3/2 F,2- | %8
 F,4 z2 z G, | G,4 A,>A, A,2 | x6 MB,>G, | _A,4 F,4 | z2 z z/ =B,/ C2 x2 |] %13
 z/ G,/A,/B,/ C2 C>=B, C/G,/E,/C,/ | C,,6 G,2 | G,4 G,2 F,2 | F,2- F,3 A,3 | A,4- A,A, A,,,2 | %18
 A,,,4 G,,2- G,,/A,,/G,,/F,,/ | z z/ B,<B,G,/ _A,2 x2 | B,,2 B,,>=B,, C,2 ^F,,2 | z2 G,2 G,C CB, | %22
 B,2 x2 x4 | [_A,,E,_A,]8 |] x4 A,3 G, | F,4 F,4 | G,2 C2 z2 F,2 | x6 G,2 | %28
 _A,F, B,2 F,G,/=A,/ PG,F,/G,/ | A,4 A,4 | %30
 z/ A,,/=B,,/C,/ D,/=E,/F,/G,/ A,/=B,/[I:staff -1]C/D/[I:staff +1] x2 | %31
 ^F,,4 G,,/A,,/B,,/C,/ D,/E,/F,/G,/ | z2 [C,G,]2- [C,G,]4 | F,4 B,_A, G,F, | %34
 z [E,G,]3 [E,G,]2 G,/F,/E,/D,/ | G, G,/4_A,/4B,/4C/4 G,<G, G,G, G,2 | %36
 F,>F,- [C,-F,-A,]2 [C,F,]4 |] %37
V:5
 F,,4- F,,4 | F,2- F,/E,/_D,/C,/ D,<B,, B,,2 | x8 | B,,2 _A,,2 _D,2 =D,2 | %4
 z C,,3 C,/D,/E,/F,/ G,/A,/B,/C/ | F,,4 x4 | ^F,,4 G,,4 | z C,, x2 A,,4 | B,,4 G,,4 | %9
 G,,4- G,,2 F,,>D,, | x6 F,2 | F,4 _D,4 | C,4 C,4 |] C,4 x4 | x6 E,>F, | C,2 B,,2 _A,,4- | %16
 _A,,2- A,,2 =A,,4 | A,,4- A,,>A,, x2 | x8 | x2 B,2 z F,-F,>F, | x8 | G,,4 C,2 _D,2 | E,4- E,4 | %23
 x8 |] _A,,8 | =A,,4 B,,2 _D,2 | E,4 F,,4 | F,,4 F,2 E,2 | D,4 D,4 | z A,,3 A,,4 | x8 | x8 | %32
 z C,- x6 | F,,2 _A,,2 [B,,F,]2 _D,2 | x6 E,2 | [C,E,]/4D,/4E,/4F,/4 G,/F,/ F,F, F,<F, F,>=E, | %36
 z C,- x6 |] %37
V:6
 x6 G,2 | F,,F,, x6 | x8 | x8 | x8 | x8 | x8 | x8 | x8 | x8 | E,,4 F,,4 | F,,2 z/ _A,,/B,,/C,/ x4 | %12
 x8 |] x8 | x6 C,2 | x8 | x4 z x3 | x8 | x8 | E,,4 F,,4 | x8 | x8 | x8 | x8 |] x8 | x8 | x8 | x8 | %28
 x8 | x8 | x8 | x8 | E,,8 | x8 | C,4 C,4 | x2 B,,2 B,,>=B,, C,2 | z/ F,,3/2- F,,2- F,,4 |] %37
V:7
 x8 | x8 | x8 | x8 | x8 | x8 | x8 | x8 | x8 | x8 | x8 | x8 | x8 |] x8 | x8 | x8 | x8 | x8 | x8 | %19
 x8 | x8 | x8 | x8 | x8 |] x8 | x8 | x8 | x8 | x8 | x8 | x8 | x8 | x8 | x8 | x8 | x6 z/ C,,3/2 | %36
 x8 |] %37
V:8
 x8 | x8 | x8 | x8 | x8 | x8 | x8 | x8 | x8 | x8 | x8 | x8 | x8 |] x8 | x8 | x8 | x8 | x8 | x8 | %19
 x8 | x8 | x8 | x8 | x8 |] x8 | x8 | x8 | x8 | x8 | x8 | x8 | x8 | x8 | x8 | x8 | x8 | %36
 x2 z/ C3/2 x4 |] %37

